!!!OTL: "Todesgedanken" SCHAETZELEIN WAS MACHST DU
!!!ARE: Europa, Mitteleuropa, Deutschland, Sachsen
!!!SCT: Z1188
!!!YEM: Copyright 1995, estate of Helmut Schaffrath.
**kern
*ICvox
*Ivox
*M2/4
*k[b-]
*F:
=1
{8.f
16g
8a
16cc
16b-
=2
4a
4g
=3
8f}
{16f
16g
8a
16cc
16b-
=4
4a
4g
=5
4f
8r}
{16f
16g
=6
8a
8a
8a
16g
16a
=7
8b-
8g
8g}
{16e
16f
=8
8g
8g
8g
16f
16g
=9
8a}
{16f
16g
8a
16cc
16b-
=10
4a
4g
=11
4f
4r}
==
!!!AGN: Liebes - Lied, Tod
!!!ONB: ESAC (Essen Associative Code) Database: ZUCCAL
!!!AMT: simple duple
!!!AIN: vox
!!!EED: Helmut Schaffrath
!!!EEV: 1.0
*-
